!!! OTL: Berkowitz513
!!! Chapter: 1
!!! Section: IV
!!! Page: 129
!!! Mode: 
!!! Encoder: DJB
**kern
*staff1
*I"Piano
=1-
*clefG2
*k[f#c#]
*D:
*M4/4
4r
4f#/
4a/
4b\
=2
4.dd\
4.a/
4b\
=3
4fn/
8g/
4f/
8e/
4d/
=4
8a/
4g/
8a/
4b\
4f#/
=5
4a/
4b\
2ee\
=6
4.dd\
4.a/
4b\
=7
4fn/
8g/
4f/
8e/
4d/
=8
8g/
4a/
8b\
4a/
8d/L
8e/J
=9
!!linebreak:original
8fn/L
8f/J
4e/
4d/
4r
==
*-
